packages/ffe-icons/icons/filled/md/remove_from_queue.svg

<svg xmlns="http://www.w3.org/2000/svg" height="24" viewBox="0 -960 960 960" width="24"><path d="M360-490.001h240q12.75 0 21.375-8.628 8.624-8.629 8.624-21.384 0-12.756-8.624-21.371-8.625-8.615-21.375-8.615H360q-12.75 0-21.374 8.628-8.625 8.629-8.625 21.384 0 12.756 8.625 21.371 8.624 8.615 21.374 8.615Zm-187.691 270q-30.308 0-51.308-21t-21-51.308v-455.382q0-30.308 21-51.308t51.308-21h615.382q30.308 0 51.308 21t21 51.308v455.382q0 30.308-21 51.308t-51.308 21H619.999v43.846q0 15.365-10.395 25.759-10.394 10.395-25.759 10.395h-207.69q-15.365 0-25.759-10.395-10.395-10.394-10.395-25.759v-43.846H172.309Z"/></svg>

<svg xmlns="http://www.w3.org/2000/svg" height="24" viewBox="0 -960 960 960" width="24"><path d="M360-490h240q12.75 0 21.37-8.63 8.63-8.63 8.63-21.38 0-12.76-8.63-21.37Q612.75-550 600-550H360q-12.75 0-21.37 8.63-8.63 8.63-8.63 21.38 0 12.76 8.63 21.37Q347.25-490 360-490ZM172.31-220Q142-220 121-241q-21-21-21-51.31v-455.38Q100-778 121-799q21-21 51.31-21h615.38Q818-820 839-799q21 21 21 51.31v455.38Q860-262 839-241q-21 21-51.31 21H620v43.84q0 15.37-10.4 25.76-10.39 10.4-25.76 10.4H376.16q-15.37 0-25.76-10.4-10.4-10.39-10.4-25.76V-220H172.31Z"/></svg>
